Point/img/garant2.svg

<svg width="120" height="129" viewBox="0 0 120 129" fill="none" xmlns="http://www.w3.org/2000/svg">
<path fill-rule="evenodd" clip-rule="evenodd" d="M70.838 2.45555C56.3698 1.01031 29.2743 -3.27122 17.2203 4.65562C5.05884 12.6531 2.78466 28.0242 0.439934 42.1333C-1.66564 54.8033 4.29472 66.6164 7.57549 79.0472C11.1396 92.5515 3.74394 109.959 14.0893 119.596C24.8846 129.652 51.4374 129.055 66.2198 126.963C80.1663 124.99 84.661 115.012 96.2221 107.162C108.115 99.0869 111.859 109.349 116.162 95.8643C120.469 82.3694 122.03 57.6053 116.162 44.681C111.038 33.3946 108.638 20.5876 98.863 12.7359C88.7574 4.61845 83.8682 3.75717 70.838 2.45555Z" fill="#E1F0EE"/>
<path d="M64.7084 81.4846C73.746 81.4846 78.266 81.4846 81.0724 78.6758C83.8812 75.8694 83.8812 71.3494 83.8812 62.3118C83.8812 53.2742 83.8812 48.7542 81.0724 45.9477C78.266 43.1389 73.746 43.1389 64.7084 43.1389H55.1219C46.0843 43.1389 41.5643 43.1389 38.7579 45.9477C35.9491 48.7542 35.9491 53.2742 35.9491 62.3118C35.9491 71.3494 35.9491 75.8694 38.7579 78.6758C40.3229 80.2432 42.4199 80.9358 45.5355 81.2402" stroke="#00325A" stroke-width="4.79321" stroke-linecap="round" stroke-linejoin="round"/>
<path d="M59.9152 62.3118V62.3353" stroke="#00325A" stroke-width="4.79321" stroke-linecap="round"/>
<path d="M50.3287 62.3118V62.3353" stroke="#00325A" stroke-width="4.79321" stroke-linecap="round"/>
<path d="M69.5016 62.3118V62.3353" stroke="#00325A" stroke-width="4.79321" stroke-linecap="round"/>
<path d="M64.7084 81.4846C61.7462 81.4846 58.482 82.6829 55.503 84.2287C50.7146 86.714 48.3204 87.9578 47.1413 87.1645C45.9622 86.3736 46.185 83.9171 46.6332 79.0065L46.7339 77.8896" stroke="#00325A" stroke-width="4.79321" stroke-linecap="round"/>
</svg>

<svg width="120" height="129" fill="none" xmlns="http://www.w3.org/2000/svg"><path fill-rule="evenodd" clip-rule="evenodd" d="M70.838 2.456C56.37 1.01 29.274-3.271 17.22 4.656 5.06 12.653 2.785 28.024.44 42.133c-2.106 12.67 3.855 24.483 7.135 36.914 3.565 13.505-3.831 30.912 6.514 40.549 10.796 10.056 37.348 9.459 52.13 7.367 13.947-1.973 18.442-11.951 30.003-19.801 11.893-8.075 15.637 2.187 19.94-11.298 4.307-13.495 5.868-38.259 0-51.183-5.124-11.286-7.524-24.093-17.299-31.945-10.106-8.118-14.995-8.979-28.025-10.28z" fill="#E1F0EE"/><path d="M64.708 81.485c9.038 0 13.558 0 16.364-2.81 2.81-2.806 2.81-7.326 2.81-16.363 0-9.038 0-13.558-2.81-16.364-2.806-2.81-7.326-2.81-16.364-2.81h-9.586c-9.038 0-13.558 0-16.364 2.81-2.809 2.806-2.809 7.326-2.809 16.364 0 9.037 0 13.557 2.809 16.364 1.565 1.567 3.662 2.26 6.777 2.564" stroke="#00325A" stroke-width="4.793" stroke-linecap="round" stroke-linejoin="round"/><path d="M59.915 62.312v.023m-9.586-.023v.023m19.173-.023v.023m-4.794 19.15c-2.962 0-6.226 1.198-9.205 2.744-4.788 2.485-7.183 3.729-8.362 2.936-1.179-.791-.956-3.248-.508-8.159l.1-1.116" stroke="#00325A" stroke-width="4.793" stroke-linecap="round"/></svg>
